icons/icon-parcel.svg

<?xml version="1.0" encoding="utf-8"?>
<!-- Generated by IcoMoon.io -->
<!DOCTYPE svg PUBLIC "-//W3C//DTD SVG 1.1//EN" "http://www.w3.org/Graphics/SVG/1.1/DTD/svg11.dtd">
<svg version="1.1" xmlns="http://www.w3.org/2000/svg" xmlns:xlink="http://www.w3.org/1999/xlink" width="16" height="16" viewBox="0 0 16 16">
<path d="M8 1l-6 4v6l6 4 6-4v-6l-6-4zM12.6 5.3l-4.6 3.1-4.6-3.1 4.6-3.1 4.6 3.1zM3 6.3l4.5 3v4.2l-4.5-3v-4.2zM8.5 13.5v-4.2l4.5-3v4.2l-4.5 3z"></path>
</svg>

<?xml version="1.0" encoding="utf-8"?>
<!-- Generator: Adobe Illustrator 23.0.1, SVG Export Plug-In . SVG Version: 6.00 Build 0)  -->
<svg version="1.1" id="Layer_1" xmlns="http://www.w3.org/2000/svg" xmlns:xlink="http://www.w3.org/1999/xlink" x="0px" y="0px"
	 viewBox="0 0 16 16" style="enable-background:new 0 0 16 16;" xml:space="preserve">
<path d="M8,1L2,5v6l6,4l6-4V5L8,1z M12.6,5.3L8,8.4L3.4,5.3L8,2.2C8,2.2,12.6,5.3,12.6,5.3z M3,6.3l4.5,3v4.2l-4.5-3V6.3z M8.5,13.5
	V9.3l4.5-3v4.2L8.5,13.5z"/>
</svg>
